!!!OTL: ICH HABE MIR EINES ERWAEHLET
!!!ARE: Europa, Mitteleuropa, Deutschland, Bergisches Land; Kleve
!!!SCT: E0591
!!!YEM: Copyright 1995, estate of Helmut Schaffrath.
**kern
*ICvox
*Ivox
*M6/8
*k[b-]
*F:
{8c
=1
8.f
16e
8f
8g
8f
8g
=2
16a
16g
8f
4.r}
{16f
16a
=3
8.cc
16cc
8cc
8dd
8cc
8b-
=4
4.a
4r}
{16f
16a
=5
8cc
8cc
16dd
16cc
4b-
16cc
16b-
=6
8a
8a
16cc
16a
4g}
{16f
16g
=7
8.a
16b-
8cc
8dd
8cc
8b-
=8
4.a
4r}
{16f
16a
=9
8cc
8cc
16dd
16cc
4b-
16cc
16b-
=10
8a
8a
16cc
16a
4g}
{16f
16g
=11
8.a
16b-
8cc
8dd
8cc
8b-
=12
4.a
4r}
==
!!!AGN: Liebes - Lied
!!!ONB: ESAC (Essen Associative Code) Database: ERK1
!!!AMT: compound duple
!!!AIN: vox
!!!EED: Helmut Schaffrath
!!!EEV: 1.0
*-
